svgs/sharp-regular/ellipsis-stroke-vertical.svg

<svg xmlns="http://www.w3.org/2000/svg" viewBox="0 0 192 512"><!--! Font Awesome Pro 6.6.0 by @fontawesome - https://fontawesome.com License - https://fontawesome.com/license (Commercial License) Copyright 2024 Fonticons, Inc. --><path d="M120 72l0 48-48 0 0-48 48 0zM72 32L32 32l0 40 0 48 0 40 40 0 48 0 40 0 0-40 0-48 0-40-40 0L72 32zm48 200l0 48-48 0 0-48 48 0zM72 192l-40 0 0 40 0 48 0 40 40 0 48 0 40 0 0-40 0-48 0-40-40 0-48 0zm0 200l48 0 0 48-48 0 0-48zM32 352l0 40 0 48 0 40 40 0 48 0 40 0 0-40 0-48 0-40-40 0-48 0-40 0z"/></svg>

<svg xmlns="http://www.w3.org/2000/svg" viewBox="0 0 192 512"><!--! Font Awesome Pro 6.5.2 by @fontawesome - https://fontawesome.com License - https://fontawesome.com/license (Commercial License) Copyright 2024 Fonticons, Inc. --><path d="M120 72l0 48-48 0 0-48 48 0zM72 32L32 32l0 40 0 48 0 40H72h48l40 0V120 72 32l-40 0L72 32zm48 200l0 48H72l0-48h48zM72 192H32l0 40 0 48 0 40H72h48 40V280l0-48V192l-40 0H72zm0 200h48l0 48H72V392zM32 352l0 40 0 48 0 40H72h48 40V440 392 352H120 72 32z"/></svg>
